!!! OTL: Literature10
!!! Chapter: 5
!!! Section: I
!!! Page: 346
!!! Mode: 
!!! Encoder: DJB
**kern
*staff1
*I"Piano
=1-
*clefG2
*k[b-]
*F:
*M2/4
4r
8r
8c/
=2
8.f/L
16g/Jk
8a/L
8b-/J
=3
8cc\L
8dd\J
8cc\L
8ff\J
=4
8cc\L
8cc\J
8b-\L
8b-\J
=5
4a/
8r
8cc\
=6
8.f/L
16g/Jk
8a/L
8b-/J
=7
8cc\L
8dd\J
8cc\L
8ff\J
=8
8cc\L
8cc\J
8b-/L
8g/J
=9
4f/
8r
8cc\
=10
!!linebreak:original
8.cc\L
16dd\Jk
8cc\L
8cc\J
=11
8.cc\L
16dd\Jk
8cc\L
8ff\J
=12
8cc\L
8cc\J
8b-\L
8b-\J
=13
4a/
8r
8cc\
=14
8.cc\L
16dd\Jk
8cc\L
8cc\J
=15
8.cc\L
16dd\Jk
8cc\L
8ff\J
=16
8cc\L
8cc\J
8b-/L
8g/J
=17
4f/
4r
==
*-
